icons/palette.svg

<svg xmlns="http://www.w3.org/2000/svg" id="Layer_1" viewBox="0 0 24 24" width="24" height="24"><style>.st0{fill:#ec407a}.st1{fill:none}</style><path d="M12 3c-5 0-9 4-9 9s4 9 9 9c.8 0 1.5-.7 1.5-1.5 0-.4-.1-.7-.4-1-.2-.3-.4-.6-.4-1 0-.8.7-1.5 1.5-1.5H16c2.8 0 5-2.2 5-5 0-4.4-4-8-9-8zm-5.5 9c-.8 0-1.5-.7-1.5-1.5S5.7 9 6.5 9 8 9.7 8 10.5 7.3 12 6.5 12zm3-4C8.7 8 8 7.3 8 6.5S8.7 5 9.5 5s1.5.7 1.5 1.5S10.3 8 9.5 8zm5 0c-.8 0-1.5-.7-1.5-1.5S13.7 5 14.5 5s1.5.7 1.5 1.5S15.3 8 14.5 8zm3 4c-.8 0-1.5-.7-1.5-1.5S16.7 9 17.5 9s1.5.7 1.5 1.5-.7 1.5-1.5 1.5z" class="st0"/><path d="M0 0h24v24H0V0z" class="st1"/></svg>

<?xml version="1.0" encoding="utf-8"?>
<!-- Generator: Adobe Illustrator 22.0.1, SVG Export Plug-In . SVG Version: 6.00 Build 0)  -->
<svg version="1.1" id="Layer_1" xmlns="http://www.w3.org/2000/svg" xmlns:xlink="http://www.w3.org/1999/xlink" x="0px" y="0px"
	 viewBox="0 0 24 24" style="enable-background:new 0 0 24 24;" xml:space="preserve">
<style type="text/css">
	.st0{fill:#EC407A;}
	.st1{fill:none;}
</style>
<path class="st0" d="M12,3c-5,0-9,4-9,9s4,9,9,9c0.8,0,1.5-0.7,1.5-1.5c0-0.4-0.1-0.7-0.4-1c-0.2-0.3-0.4-0.6-0.4-1
	c0-0.8,0.7-1.5,1.5-1.5H16c2.8,0,5-2.2,5-5C21,6.6,17,3,12,3z M6.5,12C5.7,12,5,11.3,5,10.5S5.7,9,6.5,9S8,9.7,8,10.5S7.3,12,6.5,12
	z M9.5,8C8.7,8,8,7.3,8,6.5S8.7,5,9.5,5S11,5.7,11,6.5S10.3,8,9.5,8z M14.5,8C13.7,8,13,7.3,13,6.5S13.7,5,14.5,5S16,5.7,16,6.5
	S15.3,8,14.5,8z M17.5,12c-0.8,0-1.5-0.7-1.5-1.5S16.7,9,17.5,9S19,9.7,19,10.5S18.3,12,17.5,12z"/>
<path class="st1" d="M0,0h24v24H0V0z"/>
</svg>
